Simply-Green-Circles/scalable/apps/mat.svg

<svg xmlns="http://www.w3.org/2000/svg" width="48" height="48" viewBox="0 0 12.7 12.7"><path d="M6.34.07a6.29 6.29 0 0 0-6.28 6.3 6.29 6.29 0 0 0 6.28 6.28 6.29 6.29 0 0 0 6.3-6.29A6.29 6.29 0 0 0 6.33.07zm-.01.94a5.4 5.4 0 0 1 5.4 5.4 5.4 5.4 0 0 1-5.4 5.41 5.4 5.4 0 0 1-5.41-5.4A5.4 5.4 0 0 1 6.32 1zm0 1.38c-1.18 0-2.28.04-2.53.09a.8.8 0 0 0-.4.2.7.7 0 0 0-.2.3c-.07.15-.1.29-.13.5-.04.4-.05.6-.04 1.22 0 .52 0 .58.03.92.03.3.06.43.14.6.08.2.2.32.37.4.12.06.21.08.41.1.24.04.68.05 1.48.07v3.94c0 .26.29.48.65.48h.44c.37 0 .67-.22.67-.48V6.84L7.2 6.8c.62-.01 1.21-.03 1.49-.06.16-.01.26-.04.36-.08a.9.9 0 0 0 .3-.22c.09-.11.17-.31.2-.53.03-.08.05-.31.07-.57.02-.22.02-1.25 0-1.47a2.97 2.97 0 0 0-.12-.8.83.83 0 0 0-.64-.58 23.8 23.8 0 0 0-2.53-.09zm1.42.97h1.16c.05 0 .09.03.12.08.04.06.04.13.03.2-.01.05-.03.09-.06.12s-.06.04-.1.04l-.34-.04v1.78c0 .09-.02.16-.06.22a.2.2 0 0 1-.17.08.2.2 0 0 1-.16-.08.34.34 0 0 1-.07-.22V3.76l-.35.04c-.03 0-.06-.01-.1-.04a.2.2 0 0 1-.05-.11v-.01a.28.28 0 0 1 .03-.2c.03-.05.07-.08.12-.08zm-3.67.01c.08 0 .16.02.22.07.07.04.11.1.13.17l.32.98.3-.98a.33.33 0 0 1 .14-.17.4.4 0 0 1 .22-.07h.01c.1 0 .19.03.26.1.06.06.1.13.1.21v1.87a.3.3 0 0 1-.05.2.2.2 0 0 1-.17.08c-.06 0-.1-.03-.15-.08a.31.31 0 0 1-.05-.2l.02-1.73-.32 1.04a.27.27 0 0 1-.12.15.35.35 0 0 1-.2.06.33.33 0 0 1-.19-.06.29.29 0 0 1-.11-.15l-.33-1.04.03 1.73a.3.3 0 0 1-.06.2c-.04.05-.08.08-.14.08H3.9c-.06 0-.1-.03-.14-.09a.31.31 0 0 1-.06-.19l.01-1.82.02-.11a.22.22 0 0 1 .08-.15c.07-.07.15-.1.26-.1zm2.71 0h.05a.3.3 0 0 1 .2.1c.06.05.1.13.13.22l.48 1.73c.03.1.02.18-.03.27-.04.08-.1.12-.18.12h-.03a.18.18 0 0 1-.13-.06.23.23 0 0 1-.08-.14l-.08-.49h-.57l-.07.48a.23.23 0 0 1-.23.21h-.03c-.08 0-.14-.04-.18-.12A.35.35 0 0 1 6 5.42l.45-1.72c.03-.1.07-.18.14-.24a.3.3 0 0 1 .2-.09zm.03.51l-.24.88h.49l-.25-.88z" fill="#2ca02c" fill-opacity=".99"/></svg>

<?xml version="1.0" encoding="UTF-8" standalone="no"?>
<svg
   xmlns:dc="http://purl.org/dc/elements/1.1/"
   xmlns:cc="http://creativecommons.org/ns#"
   xmlns:rdf="http://www.w3.org/1999/02/22-rdf-syntax-ns#"
   xmlns:svg="http://www.w3.org/2000/svg"
   xmlns="http://www.w3.org/2000/svg"
   xmlns:sodipodi="http://sodipodi.sourceforge.net/DTD/sodipodi-0.dtd"
   xmlns:inkscape="http://www.inkscape.org/namespaces/inkscape"
   width="48"
   height="48"
   viewBox="0 0 12.7 12.7"
   version="1.1"
   id="svg6"
   sodipodi:docname="mat.svg"
   inkscape:version="0.92.4 (5da689c313, 2019-01-14)">
  <defs
     id="defs10" />
  <sodipodi:namedview
     pagecolor="#ffffff"
     bordercolor="#666666"
     borderopacity="1"
     objecttolerance="10"
     gridtolerance="10"
     guidetolerance="10"
     inkscape:pageopacity="0"
     inkscape:pageshadow="2"
     inkscape:window-width="1087"
     inkscape:window-height="480"
     id="namedview8"
     showgrid="false"
     inkscape:zoom="4.9166667"
     inkscape:cx="2.1355932"
     inkscape:cy="24"
     inkscape:window-x="0"
     inkscape:window-y="25"
     inkscape:window-maximized="0"
     inkscape:current-layer="svg6" />
  <metadata
     id="metadata2">
    <rdf:RDF>
      <cc:Work>
        <dc:format>image/svg+xml</dc:format>
        <dc:type
           rdf:resource="http://purl.org/dc/dcmitype/StillImage" />
        <dc:title></dc:title>
      </cc:Work>
    </rdf:RDF>
  </metadata>
  <path
     d="M 6.34,0.07 A 6.29,6.29 0 0 0 0.06,6.37 6.29,6.29 0 0 0 6.34,12.65 6.29,6.29 0 0 0 12.64,6.36 6.29,6.29 0 0 0 6.33,0.07 Z M 6.33,1.01 a 5.4,5.4 0 0 1 5.4,5.4 5.4,5.4 0 0 1 -5.4,5.41 A 5.4,5.4 0 0 1 0.92,6.42 5.4,5.4 0 0 1 6.32,1 Z m 0,1.38 C 5.15,2.39 4.05,2.43 3.8,2.48 3.64,2.51 3.51,2.58 3.4,2.68 A 0.7,0.7 0 0 0 3.2,2.98 C 3.13,3.13 3.1,3.27 3.07,3.48 3.03,3.88 3.02,4.08 3.03,4.7 c 0,0.52 0,0.58 0.03,0.92 0.03,0.3 0.06,0.43 0.14,0.6 0.08,0.2 0.2,0.32 0.37,0.4 0.12,0.06 0.21,0.08 0.41,0.1 0.24,0.04 0.68,0.05 1.48,0.07 v 3.94 c 0,0.26 0.29,0.48 0.65,0.48 h 0.44 c 0.37,0 0.67,-0.22 0.67,-0.48 V 6.84 L 7.2,6.8 C 7.82,6.79 8.41,6.77 8.69,6.74 8.85,6.73 8.95,6.7 9.05,6.66 A 0.9,0.9 0 0 0 9.35,6.44 C 9.44,6.33 9.52,6.13 9.55,5.91 9.58,5.83 9.6,5.6 9.62,5.34 9.64,5.12 9.64,4.09 9.62,3.87 A 2.97,2.97 0 0 0 9.5,3.07 0.83,0.83 0 0 0 8.86,2.49 C 8.61,2.44 7.51,2.4 6.33,2.4 Z M 7.75,3.36 H 8.91 C 8.96,3.36 9,3.39 9.03,3.44 9.07,3.5 9.07,3.57 9.06,3.64 9.05,3.69 9.03,3.73 9,3.76 8.97,3.79 8.94,3.8 8.9,3.8 L 8.56,3.76 V 5.54 C 8.56,5.63 8.54,5.7 8.5,5.76 A 0.2,0.2 0 0 1 8.33,5.84 0.2,0.2 0 0 1 8.17,5.76 0.34,0.34 0 0 1 8.1,5.54 V 3.76 L 7.75,3.8 C 7.72,3.8 7.69,3.79 7.65,3.76 A 0.2,0.2 0 0 1 7.6,3.65 V 3.64 A 0.28,0.28 0 0 1 7.63,3.44 C 7.66,3.39 7.7,3.36 7.75,3.36 Z M 4.08,3.37 c 0.08,0 0.16,0.02 0.22,0.07 0.07,0.04 0.11,0.1 0.13,0.17 L 4.75,4.59 5.05,3.61 A 0.33,0.33 0 0 1 5.19,3.44 0.4,0.4 0 0 1 5.41,3.37 h 0.01 c 0.1,0 0.19,0.03 0.26,0.1 0.06,0.06 0.1,0.13 0.1,0.21 V 5.55 A 0.3,0.3 0 0 1 5.73,5.75 0.2,0.2 0 0 1 5.56,5.83 C 5.5,5.83 5.46,5.8 5.41,5.75 A 0.31,0.31 0 0 1 5.36,5.55 L 5.38,3.82 5.06,4.86 A 0.27,0.27 0 0 1 4.94,5.01 0.35,0.35 0 0 1 4.74,5.07 0.33,0.33 0 0 1 4.55,5.01 0.29,0.29 0 0 1 4.44,4.86 L 4.11,3.82 4.14,5.55 A 0.3,0.3 0 0 1 4.08,5.75 C 4.04,5.8 4,5.83 3.94,5.83 H 3.9 C 3.84,5.83 3.8,5.8 3.76,5.74 A 0.31,0.31 0 0 1 3.7,5.55 L 3.71,3.73 3.73,3.62 C 3.74,3.56 3.76,3.51 3.81,3.47 3.88,3.4 3.96,3.37 4.07,3.37 Z m 2.71,0 h 0.05 a 0.3,0.3 0 0 1 0.2,0.1 C 7.1,3.52 7.14,3.6 7.17,3.69 L 7.65,5.42 C 7.68,5.52 7.67,5.6 7.62,5.69 7.58,5.77 7.52,5.81 7.44,5.81 H 7.41 A 0.18,0.18 0 0 1 7.28,5.75 0.23,0.23 0 0 1 7.2,5.61 L 7.12,5.12 H 6.55 L 6.48,5.6 A 0.23,0.23 0 0 1 6.25,5.81 H 6.22 C 6.14,5.81 6.08,5.77 6.04,5.69 A 0.35,0.35 0 0 1 6,5.42 L 6.45,3.7 C 6.48,3.6 6.52,3.52 6.59,3.46 A 0.3,0.3 0 0 1 6.79,3.37 Z M 6.82,3.88 6.58,4.76 h 0.49 z"
     id="path4"
     inkscape:connector-curvature="0"
     style="fill:#2ca02c;fill-opacity:0.98999999" />
</svg>
